svg/white/fjc.svg

<svg width="32" height="32" viewBox="0 0 32 32" version="1.1" xmlns="http://www.w3.org/2000/svg" xmlns:xlink="http://www.w3.org/1999/xlink"><title>svg/white/fjc</title><desc>Created with Sketch.</desc><g id="white/fjc" stroke="none" stroke-width="1" fill="none" fill-rule="evenodd"><path d="M16.1944521,12.326125 L16.19125,12.326125 L16.1942961,12.3268019 L15.509125,15.299125 C15.935125,15.392875 16.379875,15.548875 16.817125,15.4255 C17.1027899,15.3353884 17.3249019,15.1090591 17.409625,14.82175 C17.492125,14.55925 17.533375,14.28925 17.604625,14.02675 L18.32875,14.210875 C18.361,14.2165 18.323875,14.234875 18.3445,14.213875 L18.3625,14.200375 C18.6625,13.877875 19.00375,13.525375 19.27375,13.184125 C18.818875,12.950875 18.37375,12.81775 17.87125,12.715375 L16.2367282,12.3351686 L16.24125,12.326125 L16.1978493,12.326125 L16.194625,12.325375 Z M16,32 C7.163444,32 0,24.836556 0,16 C0,7.163444 7.163444,0 16,0 C24.836556,0 32,7.163444 32,16 C32,24.836556 24.836556,32 16,32 Z M20.3065,11.82775 C20.3545,11.749375 20.39875,11.643625 20.44375,11.553625 C21.4623383,9.75019489 21.9983659,7.71445248 22,5.64325 C20.56525,4.815625 19.049125,4.294375 17.4025,4.112875 C18.011125,6.775375 18.875875,9.352375 20.125,11.781625 L20.3065,11.82775 Z M12.0775,11.37325 L12.0325,11.362375 L11.68375,11.28325 L11.68375,11.276875 L11.6785,11.276875 L11.9935,9.904375 C12.226,9.953125 12.4585,10.009375 12.691,10.065625 L12.695875,10.065625 C13.5449958,8.14969168 14.2069483,6.15617337 14.6725,4.112875 C12.5249213,4.35011017 10.4815061,5.1638481 8.75875,6.467875 L8.75875,6.471625 C5.83006107,8.68949242 4.07697626,12.1253452 4,15.79825 L4,16.037875 C5.28079547,16.7741042 6.68494788,17.2709581 8.14375,17.504125 L8.15125,17.496625 C9.68206104,15.6063004 10.9998902,13.5530322 12.080875,11.374 L12.0775,11.37325 Z M19.590625,13.397875 L19.535125,13.359625 C19.264375,13.702 19.001875,13.982125 18.701875,14.297125 L18.787375,14.312875 L18.896875,14.350375 L17.815,19.037875 L16.5175,18.737875 C16.585,18.355375 16.75375,17.972875 16.675,17.575375 C16.6009452,17.2859955 16.3934241,17.0492264 16.11625,16.937875 C15.82375,16.799125 15.4975,16.750375 15.18625,16.675375 L14.5825,19.297375 C14.545,19.473625 14.545,19.672375 14.6575,19.822375 C14.7475,19.953625 14.90125,20.021125 15.05125,20.058625 L16.015,20.283625 L15.72625,21.438625 C19.106125,21.406 22.545625,21.932875 25.77625,22.927375 C26.303875,22.212625 26.525125,21.929125 26.8825,21.116125 C24.910375,19.287625 23.28475,16.95925 21.82,14.703625 L21.46,16.267375 L20.00875,15.929875 C20.1325,15.344875 20.24875,14.722375 20.07625,14.129875 C19.951,13.73725 19.853125,13.5385 19.590625,13.397875 Z M8.18125,17.804875 C7.216375,18.993625 6.2065,20.150125 5.08375,21.191125 C5.43625,22.004875 5.66125,22.177375 6.18625,22.889875 C7.89325,22.364125 9.865375,21.9415 11.635,21.701125 C11.72875,21.292375 11.75125,21.179875 11.84125,20.767375 L9.625,20.253625 C9.73,19.799875 9.83875,19.342375 9.94,18.884875 C10.27375,18.948625 10.60375,19.038625 10.93375,19.106125 C11.0958545,19.1459804 11.267243,19.1160554 11.40625,19.023625 C11.545,18.922375 11.61625,18.753625 11.65375,18.592375 L11.8675,17.774875 C11.7959523,17.7770706 11.7245873,17.7833307 11.65375,17.793625 C10.735,17.924875 9.83875,17.906125 8.91625,17.823625 C8.6575,17.797375 8.463625,17.818375 8.212375,17.762125 L8.18125,17.804875 Z M13.32625,21.108625 L13.23625,21.558625 L14.185,21.491125 L14.215,21.314875 L13.32625,21.108625 Z M11.6875,17.53075 C11.7567488,17.5209155 11.8264728,17.5147818 11.896375,17.512375 L11.896375,17.50825 L13.040125,12.55825 C13.085125,12.33325 13.175125,12.10825 13.103875,11.88325 C13.0670509,11.773889 12.9970546,11.6787255 12.903625,11.611 C12.892375,11.603125 12.88075,11.596 12.86875,11.588875 C12.8330091,11.5678291 12.7953377,11.5502491 12.75625,11.536375 C12.7435,11.531875 12.73075,11.527 12.71875,11.523625 C12.529375,11.473 12.6745,11.509 12.48175,11.46325 C12.46075,11.45875 12.36475,11.491375 12.343375,11.486875 C11.2742828,13.640847 9.96887911,15.669197 8.45125,17.5345 C8.7025,17.587 8.66125,17.572 8.9125,17.59825 C9.83701012,17.6827731 10.7681927,17.6601227 11.6875,17.53075 Z M14.23,10.417 L14.23,10.42075 C14.40625,9.67825 14.57125,8.932 14.75125,8.1895 L16.22875,8.53075 L15.715,10.762 L16.6,10.96825 C16.68825,10.597 16.775,10.225125 16.86025,9.852625 L16.988875,9.294625 C17.031625,9.108625 17.074625,8.92275 17.117875,8.737 L18.595375,9.0745 C18.574375,9.1745 18.552875,9.2745 18.530875,9.3745 C18.388375,10.021375 18.229,10.661875 18.086125,11.311 L19.7875,11.707 C18.538375,9.27775 17.711125,6.737875 17.1025,4.075375 C16.72,4.030375 16.55875,4.045375 16.1725,4.037875 L15.93625,4.037875 C15.5125,4.037875 15.355,4.026625 14.93875,4.075375 C14.4715,6.118375 13.919875,8.2615 13.069,10.177 L14.23,10.417 Z M26.965,11.15575 C25.93,8.842375 24.4555,7.10125 22.2625,5.83075 C22.26025,7.903 21.761875,9.752125 20.74375,11.557 C20.69575,11.645875 20.6095,11.815 20.575,11.903875 C21.26125,12.053875 21.68875,12.14575 22.375,12.2995 L22.375,12.306625 L21.9325,14.294125 C23.395,16.547875 25.02625,19.030375 26.995,20.860375 C27.6234091,19.4281187 27.9648517,17.8865312 28,16.322875 L28,15.760375 C27.9618205,14.1722907 27.6100781,12.6074193 26.965,11.15575 Z M4,16.300375 L4,16.472875 C4.02325,18.071875 4.364875,19.387375 5.005,20.852875 C6.13,19.81075 6.99025,18.878125 7.95625,17.687875 C6.50125,17.456125 5.275,17.039875 4,16.300375 Z M15.685,21.700375 L15.1825,23.890375 L15.179125,23.890375 L13.694125,23.549125 L14.106625,21.75325 L13.161625,21.820375 L12.812875,23.342875 L12.8095,23.342875 L11.3245,23.001625 C11.3995,22.664125 11.4745,22.3345 11.557,22.00075 C9.78825535,22.2414213 8.0421763,22.6264567 6.33625,23.152 C8.55592948,26.1644814 12.0524234,27.9708184 15.79375,28.037875 L16.285,28.037875 C19.9973313,27.9419824 23.4578885,26.1390611 25.66375,23.151625 C22.4321231,22.1567047 19.0661502,21.6671776 15.685,21.700375 Z" id="Combined-Shape" fill="#FFF" fill-rule="nonzero"/></g></svg>

<svg width="32" height="32" viewBox="0 0 32 32" xmlns="http://www.w3.org/2000/svg"><path d="M16.194 12.326h-.003.003L15.51 15.3c.426.094.87.25 1.308.127a.9.9 0 0 0 .593-.604c.082-.263.123-.533.195-.795l.724.184c.032.005-.005.024.015.003l.018-.014c.3-.322.642-.675.912-1.016a5.262 5.262 0 0 0-1.403-.469l-1.634-.38.004-.009h-.046zM16 32C7.163 32 0 24.837 0 16S7.163 0 16 0s16 7.163 16 16-7.163 16-16 16zm4.306-20.172c.049-.079.093-.184.138-.274A12.038 12.038 0 0 0 22 5.644c-1.435-.828-2.95-1.35-4.598-1.531.61 2.662 1.474 5.24 2.723 7.669l.181.046zm-8.229-.455l-.044-.01-.35-.08v-.006h-.005l.315-1.373c.233.05.466.105.698.162h.005a32.523 32.523 0 0 0 1.976-5.953A11.977 11.977 0 0 0 8.76 6.468v.004A12.015 12.015 0 0 0 4 15.798v.24a12.169 12.169 0 0 0 4.144 1.466l.007-.007a33.108 33.108 0 0 0 3.93-6.123h-.003zm7.514 2.025l-.056-.038c-.27.342-.533.622-.833.937l.085.016.11.037-1.082 4.688-1.298-.3c.068-.383.237-.765.158-1.163a.938.938 0 0 0-.559-.637c-.292-.139-.618-.188-.93-.263l-.604 2.622c-.037.177-.037.375.075.525.09.132.244.2.394.237l.964.225-.289 1.155c3.38-.033 6.82.494 10.05 1.488.528-.714.75-.998 1.107-1.81-1.973-1.83-3.598-4.158-5.063-6.413l-.36 1.563-1.451-.337c.123-.585.24-1.208.067-1.8-.125-.393-.223-.591-.485-.732zM8.18 17.805c-.965 1.189-1.974 2.345-3.097 3.386.352.814.577.986 1.102 1.699a35.54 35.54 0 0 1 5.449-1.189c.094-.409.116-.521.206-.934l-2.216-.513c.105-.454.214-.912.315-1.37.334.065.664.155.994.222.162.04.333.01.472-.082.139-.102.21-.27.248-.432l.213-.817a1.89 1.89 0 0 0-.213.019c-.919.13-1.815.112-2.738.03-.258-.027-.452-.006-.704-.062l-.03.043zm5.145 3.304l-.09.45.949-.068.03-.176-.889-.206zm-1.639-3.578c.07-.01.14-.016.21-.019v-.004l1.143-4.95c.045-.225.135-.45.064-.675a.555.555 0 0 0-.348-.347l-.037-.012c-.19-.051-.044-.015-.237-.06-.021-.005-.117.027-.139.023a32.422 32.422 0 0 1-3.892 6.048c.252.052.21.037.461.063.925.085 1.856.062 2.775-.067zm2.543-7.114v.004c.176-.743.341-1.489.521-2.231l1.478.34-.514 2.232.885.206c.088-.371.175-.743.26-1.115l.129-.558.129-.558 1.477.338c-.02.1-.042.2-.064.3-.143.646-.302 1.287-.445 1.936l1.702.396c-1.25-2.43-2.077-4.97-2.686-7.632-.382-.045-.543-.03-.93-.037h-.236c-.424 0-.581-.011-.997.037-.467 2.043-1.02 4.186-1.87 6.102l1.161.24zm12.735.739C25.93 8.842 24.455 7.1 22.262 5.83c-.002 2.072-.5 3.921-1.518 5.726a4.087 4.087 0 0 0-.169.347c.686.15 1.114.242 1.8.396v.007l-.442 1.987c1.462 2.254 3.093 4.736 5.062 6.566.628-1.432.97-2.973 1.005-4.537v-.563a12.053 12.053 0 0 0-1.035-4.604zM4 16.3v.173c.023 1.599.365 2.914 1.005 4.38a28.767 28.767 0 0 0 2.951-3.165C6.501 17.456 5.275 17.04 4 16.3zm11.685 5.4l-.503 2.19h-.003l-1.485-.34.413-1.797-.945.067-.35 1.523h-.002l-1.486-.341c.075-.338.15-.668.233-1.001-1.769.24-3.515.625-5.22 1.151a12.015 12.015 0 0 0 9.457 4.886h.491a12.045 12.045 0 0 0 9.379-4.886 32.818 32.818 0 0 0-9.979-1.452z" fill="#FFF"/></svg>
